X:28
T:Lazy Schottische
M:4/4
L:1/8
C:Taz Tarry
S:Copyright B.Tarry, 18th. May 1997
R:Schottische
Q:1/4=120
K:D
A>G|:F>GA>d f2 e2 |d4A4|d>ef>d g f3|e4e4|
d>ef>d g f3|c>de>c d B3|B>cd>e f2e2|d4d4:|
|:f>ed>c B2 A2|G4 E4|G>Bd>f gf3|e4 e4|
f>ed>c BA3|g>fe>d c A3|B>cd>e f2e2|d4 d4:|

